X: 42264
T: Wearing Of The Green, The
R: hornpipe
M: 4/4
K: Gmajor
G3A|:B2B2B2A2|B2d2d2B2|B2A2A2B2|A6d2|
e2d2g2f2|e2d2B2G2|A2G2G2A2|1 G4G3A:|2 G4g2f2||
|:e2d2d2B2|d2B2G3A|1 B2A2B2c2|B4g3f:|2 B2A2A2B2|A4G3A||
B2B2B2A2|B2d2d2B2|B2A2A2B2|A6d2|
e2d2g2f2|e2d2B2G2|A2G2G2A2|G4||

